X:1
T:Title
%%score ( 1 2 ) { 3 | 4 }
L:1/8
Q:1/4=110
M:4/4
K:G
V:1 treble nm="Grand Piano, Staff 1"
V:2 treble 
V:3 bass nm="Choir Pad, Highton, 88.6 D"
V:4 bass 
V:1
 [GB][Ac] [Bd]2 G2 [FA]2 | [GB]2 [Ac]2- [Ac][Fd] [GB]2 | [GB][Ac] [Bd]2 G2 [FA]2 | %3
w: By~Fred.~Schneider,~arr~by~Lowell~Mason,~1844 * * * *|||
 [GB]2 [Fd]2- [Fd][Ac] [GB]2 | [GB]2 A2 [Fd]2 [Af][Ge] | [Fd][E^c] [Fd]6 | d^c [Fd]2 [FA]2 [A=c]2 | %7
w: ||||
 [GB]2 [FA]2- [FA][=F^G] [^FA]2 | d^c [Fd]2 [FA]2 [A=c]2 | [GB]2 [FA]2- [FA][=F^G] [^FA]2 | %10
w: |||
 [Ac]2 [GB]2 [Bd]2 [Ac]2 | [FA]2 G6- | G2 z2 z4 |] %13
w: |||
V:2
 x8 | x8 | x8 | x8 | x8 | x8 | F2 z2 z4 | x8 | F2 z2 z4 | x8 | x8 | x8 | x8 |] %13
V:3
 G,2 G,2 D,2 D,2 | D,2 D,2- D,/ z/ D, G,2 | G,2 G,2 D,2 D,2 | D,2 A,2- A,D, G,2 | G,2 F,2 A,2 A,2 | %5
 A,2 A,6 | D,2 D,2 D,2 D,2 | D,2 D,2- D,D, D,2 | D,2 D,2 D,2 D,2 | D,2 D,2- D,D, D,2 | %10
 D,2 G,2 D,2 D,2 | E,2 B,6- | B,2 z2 z4 |] %13
V:4
 G,,2 G,,2 B,,2 z2 | z4 z2 D,2 | G,,2 G,,2 B,,2 z2 | z2 D,4 D,2 | G,,2 D,2 D,2 z2 | A,,2 D,6 | z8 | %7
 z8 | z8 | z8 | z2 D,2 B,,2 C,2 | D,2 G,,6- | G,,2 z2 z4 |] %13

